X:1
T:Title
%%score { ( 1 3 ) | ( 2 4 ) }
L:1/8
M:4/4
K:Bb
V:1 treble nm="Grand Piano"
V:3 treble 
V:2 bass 
V:4 bass 
V:1
 z4 z2[Q:1/4=100] F2 | B2 AG FGFE | D2 E2 F2 F2 | [DB]2 [FB]2 [Fc]2 [Fc]2 |[M:3/4] [Fd]6 | %5
[M:1/4] d2 |[M:4/4] e2 d2 c2 e2 | d2 c2 B2 [DGB]2 | [CFA]2 [Fc]2 F-[FB][CA]G |[M:3/4] F6 | %10
[M:1/4] F2 |[M:4/4] [DB]2 [DB]2 [Gc]2 [Gc]2 | [^Fd]2 c2 B2 =B2 | c2 [=EG]2 [Fc]2 [GB]2 | %14
[M:3/4] [FA]6 |[M:1/4] [FA]2 |[M:4/4] [DB]2 [FB]2 [Fc]2 [Fc]2 | %17
[M:9/8] [Fd]2 [Fd]- [Fd] [Ee]2- [Ee] [Ge]2 |[M:4/4] d2 z2 z4 |[M:3/4] [DFB]6 |] %20
V:2
 z4 z2 F,2 | B,2 A,G, F,G,F,E, | D,2 E,2 F,2 [D,B,]2 | [B,,B,]2 [D,B,]2 [F,A,]2 [F,A,]2 | %4
[M:3/4] [B,,B,]6 |[M:1/4][K:treble] [B,F]2 |[M:4/4] [F,A,F]2 [F,B,F]2 [F,EF]2 [A,CF]2 | %7
 [B,F]2 [A,D^F]2 [G,DG]2[K:bass] B,,2 | C,2 [C,A,]2 z D z B, |[M:3/4] [F,A,]6 |[M:1/4] [F,A,C]2 | %11
[M:4/4] [B,,B,]2 [G,B,]2 [E,G,]2 [E,G,]2 | [D,A,]2 [^F,A,D]2 [G,D]2 [=F,G,D]2 | %13
 [=E,G,C]2 [C,C]2 [D,C]2 [E,C]2 |[M:3/4] [F,C]6 |[M:1/4] [F,C]2 | %16
[M:4/4] [B,,B,]2 [D,B,]2 [F,A,]2 [F,A,]2 | %17
[M:9/8] [B,,B,]2 [_A,B,]- [A,B,] [G,B,]2- [G,B,] [C,B,]2 |[M:4/4] .[F,B,F]2 [F,E]2 [F,C]3 F, | %19
[M:3/4] B,,6 |] %20
V:3
 x8 | x8 | x8 | x8 |[M:3/4] x6 |[M:1/4] x2 |[M:4/4] x8 | x8 | z4 .[B,G]2 =E2 |[M:3/4] x6 | %10
[M:1/4] x2 |[M:4/4] x8 | x8 | x8 |[M:3/4] x6 |[M:1/4] x2 |[M:4/4] x8 |[M:9/8] x9 | %18
[M:4/4] z D [Gc]2 [Af]3 [EFA] |[M:3/4] x6 |] %20
V:4
 x8 | x8 | x8 | x8 |[M:3/4] x6 |[M:1/4][K:treble] x2 |[M:4/4] x8 | x6[K:bass] x2 | z4 C,2 C,2 | %9
[M:3/4] x6 |[M:1/4] x2 |[M:4/4] x8 | x8 | x8 |[M:3/4] x6 |[M:1/4] x2 |[M:4/4] x8 |[M:9/8] x9 | %18
[M:4/4] x8 |[M:3/4] x6 |] %20

